themes/src/main/resources/theme/keycloak.v2/account/resources/img/socialmedia/socialmedia_icons_openshift_transparent.svg

<?xml version="1.0" encoding="UTF-8" standalone="no"?>
<!DOCTYPE svg PUBLIC "-//W3C//DTD SVG 1.1//EN" "http://www.w3.org/Graphics/SVG/1.1/DTD/svg11.dtd">
<svg width="100%" height="100%" viewBox="0 0 32 32" version="1.1" xmlns="http://www.w3.org/2000/svg" xmlns:xlink="http://www.w3.org/1999/xlink" xml:space="preserve" xmlns:serif="http://www.serif.com/" style="fill-rule:evenodd;clip-rule:evenodd;stroke-linejoin:round;stroke-miterlimit:2;">
    <g transform="matrix(0.321739,0,0,0.321739,-0.234299,0.0972928)">
        <path d="M64.38,23.5C67.556,24.99 70.436,27.044 72.88,29.56L88.62,23.83C80.176,12.044 66.537,5.037 52.039,5.037C27.353,5.037 7.039,25.351 7.039,50.037C7.039,51.183 7.083,52.328 7.17,53.47L22.91,47.74C24.033,32.597 36.806,20.737 51.99,20.737C56.273,20.737 60.503,21.68 64.38,23.5" style="fill:rgb(238,0,0);fill-rule:nonzero;"/>
        <path d="M16,58.19L1,63.63C2.371,69.099 4.744,74.267 8,78.87L23.7,73.16C19.696,69.029 16.99,63.813 15.92,58.16" style="fill:rgb(238,0,0);fill-rule:nonzero;"/>
        <path d="M81.16,52.25C80.904,55.75 80.009,59.173 78.52,62.35C71.736,76.878 54.205,83.258 39.67,76.49C36.487,75.027 33.599,72.994 31.15,70.49L15.45,76.21C23.88,88.016 37.524,95.039 52.032,95.039C69.504,95.039 85.459,84.851 92.81,69C96.075,61.982 97.454,54.233 96.81,46.52L81.16,52.25Z" style="fill:rgb(238,0,0);fill-rule:nonzero;"/>
        <path d="M85,33L70,38.45C72.851,43.476 74.153,49.236 73.74,55L89.44,49.29C88.992,43.63 87.486,38.104 85,33" style="fill:rgb(238,0,0);fill-rule:nonzero;"/>
        <path d="M29.46,45.36L13.72,51.09C13.94,53.604 14.368,56.096 15,58.54L30,53.1C29.501,50.552 29.346,47.949 29.54,45.36" style="fill:rgb(204,0,0);fill-rule:nonzero;"/>
        <path d="M99,28C97.903,25.724 96.619,23.543 95.16,21.48L79.43,27.18C81.238,29.04 82.791,31.132 84.05,33.4L99,28Z" style="fill:rgb(204,0,0);fill-rule:nonzero;"/>
        <path d="M15.45,76.17C16.671,77.879 18.007,79.503 19.45,81.03L36.54,74.79C34.578,73.561 32.769,72.105 31.15,70.45L15.45,76.17ZM96.86,46.54L81.16,52.25C80.985,54.545 80.539,56.81 79.83,59L96.92,52.76C97.04,50.684 97.02,48.603 96.86,46.53" style="fill:rgb(204,0,0);fill-rule:nonzero;"/>
        <path d="M29.4,48.52C29.36,47.466 29.38,46.411 29.46,45.36L13.72,51.09C13.8,52.09 13.93,53.09 14.08,54.09L29.4,48.52Z" style="fill:rgb(163,0,0);fill-rule:nonzero;"/>
        <path d="M96.72,23.82C96.22,23.01 95.72,22.22 95.16,21.44L79.43,27.18C80.116,27.884 80.764,28.626 81.37,29.4L96.72,23.82Z" style="fill:rgb(163,0,0);fill-rule:nonzero;"/>
    </g>
</svg>

<svg id="a7bfd368-efa2-4785-ba2a-aa9c0c508563" data-name="Layer 1" xmlns="http://www.w3.org/2000/svg" width="32" height="32" viewBox="0 0 32 32">
  <defs>
    <style>.a18430ac-df22-44ae-a57d-d788d7b67128{fill:#e00;}.a8090248-91b4-4d35-a86c-f0364dfcf5b4{fill:#c00;}.ec2286c4-1e75-4045-8d04-5d16729c9899{fill:#a30000;}</style>
  </defs>
  <title>Product_Icon-Red_Hat-OpenShift</title>
  <path class="a18430ac-df22-44ae-a57d-d788d7b67128" d="M64.38,23.5a29.06,29.06,0,0,1,8.5,6.06l15.74-5.73A45,45,0,0,0,7.17,53.47l15.74-5.73A29.16,29.16,0,0,1,64.38,23.5"/>
  <path class="a18430ac-df22-44ae-a57d-d788d7b67128" d="M16,58.19,1,63.63A45.59,45.59,0,0,0,8,78.87l15.7-5.71a29.41,29.41,0,0,1-7.78-15"/>
  <path class="a18430ac-df22-44ae-a57d-d788d7b67128" d="M81.16,52.25a28.75,28.75,0,0,1-2.64,10.1A29.25,29.25,0,0,1,39.67,76.49a28.66,28.66,0,0,1-8.52-6l-15.7,5.72A44.95,44.95,0,0,0,92.81,69a44.52,44.52,0,0,0,4-22.48Z"/>
  <path class="a18430ac-df22-44ae-a57d-d788d7b67128" d="M85,33l-15,5.45A29.3,29.3,0,0,1,73.74,55l15.7-5.71A45.37,45.37,0,0,0,85,33"/>
  <path class="a8090248-91b4-4d35-a86c-f0364dfcf5b4" d="M29.46,45.36,13.72,51.09A45.63,45.63,0,0,0,15,58.54l15-5.44a29,29,0,0,1-.46-7.74"/>
  <path class="a8090248-91b4-4d35-a86c-f0364dfcf5b4" d="M99,28a45.49,45.49,0,0,0-3.84-6.52L79.43,27.18a29.38,29.38,0,0,1,4.62,6.22Z"/>
  <path class="a8090248-91b4-4d35-a86c-f0364dfcf5b4" d="M15.45,76.17a46.07,46.07,0,0,0,4,4.86l17.09-6.24a29.29,29.29,0,0,1-5.39-4.34ZM96.86,46.54l-15.7,5.71A29.11,29.11,0,0,1,79.83,59l17.09-6.24a46.22,46.22,0,0,0-.06-6.23"/>
  <path class="ec2286c4-1e75-4045-8d04-5d16729c9899" d="M29.4,48.52a27.78,27.78,0,0,1,.06-3.16L13.72,51.09c.08,1,.21,2,.36,3Z"/>
  <path class="ec2286c4-1e75-4045-8d04-5d16729c9899" d="M96.72,23.82c-.5-.81-1-1.6-1.56-2.38L79.43,27.18a27.28,27.28,0,0,1,1.94,2.22Z"/>
</svg>
